X:1
T:Canterbury, 77.77
T:Canterbury, 77.77
T:Orlando Gibbons, 1623
T:Public Domain Courtesy of the Cyber Hymnal™
C:Orlando Gibbons, 1623
Z:Public Domain
Z:Courtesy of the Cyber Hymnal™
%%score ( 1 2 ) ( 3 4 )
L:1/8
Q:1/4=107
M:4/4
K:D
V:1 treble 
V:2 treble 
V:3 bass 
V:4 bass 
V:1
 [DF]2 [DG]2 [DA]2 [DB]2 | [DE]2 [CE]2 [DF]4 | [EA]2 [DB]2 [Cc]2 [Fd]2 | [EB]2 B2 [CA]4 | %4
 [DF]2 [DG]2 [EA]2 [B,B]2 | G2 [DF]2 [CE]4 | [EA]2 (GF) [CE]2 D2 | [DE]2 [CE]2 D4 |] %8
V:2
 x8 | x8 | x8 | x2 (ED) x4 | x8 | (B,C) x6 | x2 D2 x D2 x | x4 D4 |] %8
V:3
 [D,A,]2 [B,,B,]2 [F,,A,]2 (G,F,) | [A,,E,]2 [A,,A,]2 [A,,A,]4 | %2
 [C,A,]2 [B,,^G,]2 [A,,A,]2 [D,A,]2 | [E,A,]2 [E,^G,]2 [A,,A,]4 | %4
 [D,A,]2 [B,,B,]2 [C,A,]2 [^D,F,]2 | [E,G,]2 A,2 A,4 | [C,A,]2 [D,A,]2 (A,G,) [B,,F,]2 | %7
 [G,,B,]2 (A,G,) [D,F,]4 |] %8
V:4
 x6 G,,2 | x8 | x8 | x8 | x8 | x2 (F,G,) A,4 | x4 A,,2 x2 | x2 A,,2 x4 |] %8

